projects/seb-pictograms/svg/light/72-Picto-Light_black.svg

<svg xmlns="http://www.w3.org/2000/svg" viewBox="0 0 170 170"><path d="M49.1 32.8a27.8 27.8 0 00-27.8 27.7V79A27.8 27.8 0 0049 106.7v-3A24.8 24.8 0 0124.3 79v-6a27.7 27.7 0 1024.8-40.2zm0 52.5a24.7 24.7 0 1124.7-24.8 24.8 24.8 0 01-24.7 24.7zm37.4 4.3a27.8 27.8 0 00-27.7 27.7v18.5a27.7 27.7 0 0055.5 0v-18.4a27.8 27.8 0 00-27.8-27.8zm0 3a24.7 24.7 0 11-24.7 24.7 24.8 24.8 0 0124.7-24.7zm1.5 52.5a27.5 27.5 0 009.6-2.3v15.1a24.5 24.5 0 01-9.6 2.6zm-26.2-9.2V130A27.8 27.8 0 0085 145.1v15.5a24.8 24.8 0 01-23.2-24.8zm49.5 0a24.7 24.7 0 01-10.6 20.3v-15a27.9 27.9 0 0010.6-11.3zm9.6-129.4a27.8 27.8 0 00-27.7 27.7v18.5a27.7 27.7 0 0055.5 0V34.2a27.8 27.8 0 00-27.8-27.7zm0 3a24.7 24.7 0 11-24.7 24.7 24.8 24.8 0 0124.7-24.7zm-1.5 52.4v15.5a24.5 24.5 0 01-9.6-2.6V59.6a27.5 27.5 0 009.6 2.3zm-23.2-9.2v-6A27.9 27.9 0 00106.8 58v14.9a24.7 24.7 0 01-10.6-20.2zm49.5 0a24.8 24.8 0 01-23.2 24.7V61.9a27.8 27.8 0 0023.2-15.2z"/></svg>

<svg id="PIKTO_LIGHT" xmlns="http://www.w3.org/2000/svg" viewBox="0 0 170 170"><title>light_black</title><path d="M49.1,32.8A27.8,27.8,0,0,0,21.3,60.5V79a27.8,27.8,0,0,0,27.7,27.7v-3A24.8,24.8,0,0,1,24.3,79V73A27.7,27.7,0,1,0,49.1,32.8Zm0,52.5A24.7,24.7,0,1,1,73.8,60.5,24.8,24.8,0,0,1,49.1,85.2Z"/><path d="M86.5,89.6a27.8,27.8,0,0,0-27.7,27.7v18.5a27.7,27.7,0,0,0,55.5,0V117.4A27.8,27.8,0,0,0,86.5,89.6Zm0,3a24.7,24.7,0,1,1-24.7,24.7A24.8,24.8,0,0,1,86.5,92.6ZM88,145.1a27.5,27.5,0,0,0,9.6-2.3v15.1a24.5,24.5,0,0,1-9.6,2.6Zm-26.2-9.2v-5.9A27.8,27.8,0,0,0,85,145.1v15.5A24.8,24.8,0,0,1,61.8,135.8Zm49.5,0a24.7,24.7,0,0,1-10.6,20.3V141.2a27.9,27.9,0,0,0,10.6-11.3Z"/><path d="M120.9,6.5A27.8,27.8,0,0,0,93.2,34.2V52.7a27.7,27.7,0,0,0,55.5,0V34.2A27.8,27.8,0,0,0,120.9,6.5Zm0,3A24.7,24.7,0,1,1,96.2,34.2,24.8,24.8,0,0,1,120.9,9.5Zm-1.5,52.4V77.4a24.5,24.5,0,0,1-9.6-2.6V59.6A27.5,27.5,0,0,0,119.4,61.9ZM96.2,52.7V46.7a27.9,27.9,0,0,0,10.6,11.3V72.9A24.7,24.7,0,0,1,96.2,52.7Zm49.5,0a24.8,24.8,0,0,1-23.2,24.7V61.9a27.8,27.8,0,0,0,23.2-15.2Z"/></svg>
